X: 23985
T: Locomotive, The
R: hornpipe
M: 4/4
K: Dmajor
de|fedc dAFA|fedc dAFA|Bdgf edcd|(3efd (3cdB A2de|
fedc dAFA|fedc Bdga|ba^ga =geag|f2d2 d2:|
|:cd|edcd e2a2|fede f2a2|gfga bagf|(3efe (3dcB (3ABA (3GFE|
DFAd fafd|gfga b2ag|(3fag (3fed (3cba (3gfe|f2d2 d2:|

